X:345
L:1/8
M:2/2
K:D
"D" F4- F4 |"G/D" G6 FG |"D" A2 AB AG F2 |"A" E6 FG |"D" A2 d2"A" c4 |"G" B2 BA"D" FE D2 | 
"Em" E2 EF"A7" GF E2 |1"D" D4 ABAG :|2"D" D4 DFAc |:"D" d4- d4 |"A" c4- c4 |"G" B2 Bc dc B2 | 
"D" A6 FG |"D" A2 d2"A" c4 |"G" B2 Bc"D" BA F2 |"Em" E2 EF"A7" GF E2 |1"D" D4 DFAc :|2 
"D" D4 ABAG |]

